!!!COM: Music21
!!!OTL: Pasodoble
!!!OMV: pezas_pasodobles_pasodoble-8_pasodoble-partitura.musicxml
**kern
*part1
*staff1
*I"Bagpipes
*I'Bag
*clefG^2
*k[]
*M2/4
=1
!LO:TX:a:t=Allegretto
16ggLL
16aa
16gg
16ffJJ
16eeLL
16dd
16ee
16ffJJ
=
2gg
=
16ggLL
16aa
16gg
16ffJJ
16eeLL
16dd
16ee
16ffJJ
=
2gg
=
16cccLL
16ddd
16ccc
16bbJJ
16aaLL
16bb
16ccc
16dddJJ
=
16bbLL
16ccc
16bb
16aaJJ
16ggLL
16aa
16bb
16cccJJ
!!linebreak:original
=
16aaLL
16bb
16aa
16ggJJ
16ffLL
16gg
16aa
16bbJJ
=
16ggLL
16aa
16gg
16ffJJ
16eeLL
16ff
16gg
16aaJJ
=
16ffLL
16gg
16ff
16eeJJ
16ddLL
16ee
16ff
16ggJJ
=
2ee
=||
*M2/4
!LO:TX:a:t=Allegretto
16ggLL
16aa
16gg
16ffJJ
16eeLL
16dd
16ee
16ffJJ
=
2gg
!!linebreak:original
=
16ggLL
16aa
16gg
16ffJJ
16eeLL
16dd
16ee
16ffJJ
=
2gg
=
16cccLL
16ddd
16ccc
16bbJJ
16aaLL
16bb
16ccc
16dddJJ
=
16bbLL
16ccc
16bb
16aaJJ
16ggLL
16aa
16bb
16cccJJ
=
16aaLL
16bb
16aa
16ggJJ
16ffLL
16gg
16aa
16bbJJ
=
16ggLL
16aa
16gg
16ffJJ
16eeLL
16ff
16gg
16aaJJ
!!linebreak:original
=
16ffLL
16gg
16ff
16eeJJ
16ddLL
16ee
16ff
16ggJJ
=
[2ee
=
4.ee]
8gg
=||
4.ccc
8aa
=
4.bb
8gg
=
4.aa
24ggLL
24aa
24ggJJ
=
4.ff
8gg
=
4.bb
8gg
=
4.aa
8ff
!!linebreak:original
=
4.gg
24ffLL
24gg
24ffJJ
=
4.ee
8gg
=
8cccL
8cccJ
8cccL
8aaJ
=
8bbL
8bbJ
8bbL
8ggJ
=
8aaL
8aaJ
8aa
24ggLL
24aa
24ggJJ
=
4.ff
8gg
=
8bbL
8bbJ
8bbL
8ggJ
=
8aaL
8aaJ
8aaL
8ffJ
!!pagebreak:original
=
8ggL
8ggJ
8gg
24ffLL
24gg
24ffJJ
=
4.ee
8gg
=||
4.ccc
8aa
=
4.bb
8gg
=
4.aa
24ggLL
24aa
24ggJJ
=
4.ff
8gg
=
4.bb
8gg
=
4.aa
8ff
=
4.gg
24ffLL
24gg
24ffJJ
!!linebreak:original
=
4.ee
8gg
=
8cccL
8cccJ
8cccL
8aaJ
=
8bbL
8bbJ
8bbL
8ggJ
=
8aaL
8aaJ
8aa
24ggLL
24aa
24ggJJ
=
4.ff
8gg
=
8bbL
8bbJ
8bbL
8ggJ
=
8aaL
8aaJ
8aaL
8ffJ
=
8ggL
8ggJ
8gg
24ffLL
24gg
24ffJJ
!!linebreak:original
=
[2ee
=
2ee]
==
*-
!!!system-decoration: s1,s2
